assets/logos/apple.svg

<svg width="80" height="80" viewBox="0 0 80 80" fill="none" xmlns="http://www.w3.org/2000/svg">
<path d="M57.3654 42.0012C57.4548 51.6864 65.8126 54.9094 65.9052 54.9505C65.8346 55.1779 64.5698 59.5436 61.5019 64.0532C58.8499 67.9519 56.0975 71.8364 51.7616 71.9168C47.5011 71.9958 46.1311 69.3756 41.2602 69.3756C36.3908 69.3756 34.8687 71.8364 30.8357 71.9958C26.6504 72.1551 23.4634 67.7798 20.7893 63.8954C15.3252 55.9496 11.1495 41.4425 16.7564 31.65C19.5418 26.7869 24.5196 23.7075 29.9224 23.6285C34.0322 23.5497 37.9114 26.4096 40.4238 26.4096C42.9346 26.4096 47.6486 22.9703 52.6043 23.4754C54.6789 23.5622 60.5024 24.3183 64.2418 29.8238C63.9405 30.0117 57.2932 33.904 57.3654 42.0012V42.0012ZM49.3584 18.2186C51.5804 15.5132 53.0759 11.7472 52.6679 8C49.4651 8.12948 45.5922 10.1467 43.2948 12.8506C41.236 15.2449 39.4329 19.0772 39.9194 22.7503C43.4894 23.0281 47.1363 20.9256 49.3584 18.2186" fill="black"/>
</svg>

<svg xmlns="http://www.w3.org/2000/svg" width="80" height="80" fill="none" viewBox="0 0 80 80"><path fill="#000" d="M57.365 42.001c.09 9.685 8.448 12.908 8.54 12.95-.07.227-1.335 4.593-4.403 9.102-2.652 3.899-5.405 7.783-9.74 7.864-4.26.079-5.63-2.541-10.502-2.541-4.87 0-6.391 2.46-10.424 2.62-4.186.16-7.373-4.216-10.047-8.1-5.464-7.946-9.64-22.453-4.033-32.246 2.786-4.863 7.764-7.942 13.166-8.021 4.11-.08 7.99 2.78 10.502 2.78 2.51 0 7.225-3.439 12.18-2.934 2.075.087 7.898.843 11.638 6.349-.302.188-6.949 4.08-6.877 12.177M49.358 18.22c2.222-2.706 3.718-6.472 3.31-10.219-3.203.13-7.076 2.147-9.373 4.85-2.059 2.395-3.862 6.227-3.376 9.9 3.57.278 7.217-1.824 9.44-4.531"/></svg>
